src/platform/packages/shared/kbn-custom-icons/assets/functions.svg

<svg width="18" height="18" viewBox="0 0 18 18" fill="none" xmlns="http://www.w3.org/2000/svg">
<g clip-path="url(#clip0_1421_84668)">
<path d="M5.49999 13.1L4.89999 13.7C4.84499 13.7492 4.77379 13.7764 4.69999 13.7764C4.6262 13.7764 4.555 13.7492 4.49999 13.7L0.199994 9.4C0.10361 9.28903 0.0505371 9.14699 0.0505371 9C0.0505371 8.85301 0.10361 8.71097 0.199994 8.6L0.699994 8L5.49999 12.8C5.49999 12.9 5.59999 13 5.49999 13.1Z" fill="#50E6FF"/>
<path d="M4.79999 4.30004L5.39999 4.90004C5.44919 4.95504 5.47639 5.02625 5.47639 5.10004C5.47639 5.17383 5.44919 5.24504 5.39999 5.30004L0.799994 9.90004L0.199994 9.30004C0.10361 9.18907 0.0505371 9.04702 0.0505371 8.90004C0.0505371 8.75305 0.10361 8.61101 0.199994 8.50004L4.49999 4.20004C4.55428 4.1935 4.60934 4.19908 4.66122 4.21638C4.71309 4.23367 4.76048 4.26224 4.79999 4.30004Z" fill="#1490DF"/>
<path d="M17.3 8L17.9 8.6C17.9964 8.71097 18.0494 8.85301 18.0494 9C18.0494 9.14699 17.9964 9.28903 17.9 9.4L13.5 13.8C13.445 13.8492 13.3738 13.8764 13.3 13.8764C13.2262 13.8764 13.155 13.8492 13.1 13.8L12.5 13.2C12.4508 13.145 12.4236 13.0738 12.4236 13C12.4236 12.9262 12.4508 12.855 12.5 12.8L17.3 8Z" fill="#50E6FF"/>
<path d="M17.8 9.30005L17.2 9.90005L12.5 5.20005C12.4508 5.14505 12.4236 5.07384 12.4236 5.00005C12.4236 4.92626 12.4508 4.85505 12.5 4.80005L13.1 4.20005C13.155 4.15085 13.2262 4.12366 13.3 4.12366C13.3738 4.12366 13.445 4.15085 13.5 4.20005L17.8 8.50005C17.8964 8.61102 17.9494 8.75307 17.9494 8.90005C17.9494 9.04704 17.8964 9.18908 17.8 9.30005Z" fill="#1490DF"/>
<path d="M8.3 9.9H4.7C4.64847 9.89549 4.60018 9.87298 4.5636 9.8364C4.52702 9.79982 4.50451 9.75153 4.5 9.7V9.6L8.8 1.1C8.9 1.1 8.9 1 9 1H13.2C13.2515 1.00451 13.2998 1.02702 13.3364 1.0636C13.373 1.10018 13.3955 1.14847 13.4 1.2V1.3L8.4 8H13.3C13.3515 8.00451 13.3998 8.02702 13.4364 8.0636C13.473 8.10018 13.4955 8.14847 13.5 8.2C13.5 8.3 13.5 8.3 13.4 8.3L5.2 16.8C5.1 16.8 4.6 17.3 4.8 16.6L8.3 9.9Z" fill="url(#paint0_linear_1421_84668)"/>
</g>
<defs>
<linearGradient id="paint0_linear_1421_84668" x1="8.754" y1="16.689" x2="8.754" y2="0.724" gradientUnits="userSpaceOnUse">
<stop stop-color="#FEA11B"/>
<stop offset="0.28" stop-color="#FEA51A"/>
<stop offset="0.55" stop-color="#FEB018"/>
<stop offset="0.8" stop-color="#FFC314"/>
<stop offset="1" stop-color="#FFD70F"/>
</linearGradient>
<clipPath id="clip0_1421_84668">
<rect width="18" height="18" fill="white"/>
</clipPath>
</defs>
</svg>

<svg xmlns="http://www.w3.org/2000/svg" width="18" height="18" fill="none"><g clip-path="url(#a)"><path fill="#50E6FF" d="m5.5 13.1-.6.6a.3.3 0 0 1-.4 0L.2 9.4a.61.61 0 0 1 0-.8L.7 8l4.8 4.8c0 .1.1.2 0 .3"/><path fill="#1490DF" d="m4.8 4.3.6.6a.3.3 0 0 1 0 .4L.8 9.9l-.6-.6a.61.61 0 0 1 0-.8l4.3-4.3a.37.37 0 0 1 .3.1"/><path fill="#50E6FF" d="m17.3 8 .6.6a.61.61 0 0 1 0 .8l-4.4 4.4a.3.3 0 0 1-.4 0l-.6-.6a.3.3 0 0 1 0-.4z"/><path fill="#1490DF" d="m17.8 9.3-.6.6-4.7-4.7a.3.3 0 0 1 0-.4l.6-.6a.3.3 0 0 1 .4 0l4.3 4.3a.61.61 0 0 1 0 .8"/><path fill="url(#b)" d="M8.3 9.9H4.7a.22.22 0 0 1-.2-.2v-.1l4.3-8.5c.1 0 .1-.1.2-.1h4.2a.22.22 0 0 1 .2.2v.1L8.4 8h4.9a.22.22 0 0 1 .2.2c0 .1 0 .1-.1.1l-8.2 8.5c-.1 0-.6.5-.4-.2z"/></g><defs><linearGradient id="b" x1="8.754" x2="8.754" y1="16.689" y2=".724" gradientUnits="userSpaceOnUse"><stop stop-color="#FEA11B"/><stop offset=".28" stop-color="#FEA51A"/><stop offset=".55" stop-color="#FEB018"/><stop offset=".8" stop-color="#FFC314"/><stop offset="1" stop-color="#FFD70F"/></linearGradient><clipPath id="a"><path fill="#fff" d="M0 0h18v18H0z"/></clipPath></defs></svg>
